rospo-icon-theme-classic-common/64x64/apps/com.github.danrabbit.harvey.svg

<svg height="64" width="64" xmlns="http://www.w3.org/2000/svg"><path d="m6.8007812 11c-1.5512 0-2.8007812 1.2265-2.8007812 2.75v38.5c0 1.5235 1.2495812 2.75 2.8007812 2.75h11.0585938.140625 39.199218c1.5512 0 2.800782-1.2265 2.800782-2.75v-38.5c0-1.5235-1.249582-2.75-2.800782-2.75h-39.199218-.140625z" opacity=".2"/><path d="m17.86 10v44h39.34c1.5512 0 2.8-1.2265 2.8-2.75v-38.5c0-1.5235-1.2488-2.75-2.8-2.75z" fill="#23c2c2"/><path d="m18 10h1v44h-1z" opacity=".1"/><path d="m6.8 10c-1.5512 0-2.8 1.2265-2.8 2.75v38.5c0 1.5235 1.2488 2.75 2.8 2.75h11.2v-44z" fill="#e4e4e4"/><circle cx="39" cy="32" fill="#3f3f3f" r="14"/><path d="m304.9375 131.9375-4.9375 4.9375-1.9375-1.9375-2.125 2.125 3 3 1.0625 1.0625 1.0625-1.0625 6-6z" opacity=".2" transform="matrix(1.3483146 0 0 1.3061224 -367.016861 -145.326524)"/><path d="m304.9375 131.9375-4.9375 4.9375-1.9375-1.9375-2.125 2.125 3 3 1.0625 1.0625 1.0625-1.0625 6-6z" fill="#fff" transform="matrix(1.3483146 0 0 1.3061224 -367.016861 -146.326525)"/><path d="m6.8007812 10c-1.5512 0-2.8007812 1.2265-2.8007812 2.75v1c0-1.5235 1.2495812-2.75 2.8007812-2.75h11.0585938.140625 39.199219c1.5512 0 2.800781 1.2265 2.800781 2.75v-1c0-1.5235-1.249581-2.75-2.800781-2.75h-39.199219-.140625z" fill="#fff" opacity=".2"/></svg>

<svg xmlns="http://www.w3.org/2000/svg" width="64" height="64" version="1">
 <path d="M 6.8007812,11 C 5.2495812,11 4,12.2265 4,13.75 l 0,38.5 C 4,53.7735 5.2495812,55 6.8007812,55 L 17.859375,55 18,55 57.199218,55 C 58.750418,55 60,53.7735 60,52.25 l 0,-38.5 C 60,12.2265 58.750418,11 57.199218,11 L 18,11 17.859375,11 6.8007812,11 Z" style="opacity:0.2"/>
 <path style="fill:#23c2c2" d="m 17.86,10 0,44 39.34,0 c 1.5512,0 2.8,-1.2265 2.8,-2.75 l 0,-38.5 C 60,11.2265 58.7512,10 57.2,10 Z"/>
 <rect style="opacity:0.1" width="1" height="44" x="18" y="10"/>
 <path style="fill:#cccccc" d="M 6.8,10 C 5.2488,10 4,11.2265 4,12.75 l 0,38.5 C 4,52.7735 5.2488,54 6.8,54 L 18,54 18,10 Z"/>
 <circle style="fill:#3f3f3f" cx="39" cy="32" r="14"/>
 <g style="opacity:0.2" transform="matrix(1.3483146,0,0,1.3061224,28.039856,21.857143)">
  <g transform="translate(-293.0004,-128)">
   <path d="M 304.9375,131.9375 300,136.875 l -1.9375,-1.9375 -2.125,2.125 3,3 1.0625,1.0625 1.0625,-1.0625 6,-6 -2.125,-2.125 z"/>
  </g>
 </g>
 <g transform="matrix(1.3483146,0,0,1.3061224,28.039856,20.857142)" style="fill:#ffffff">
  <g transform="translate(-293.0004,-128)" style="fill:#ffffff">
   <path style="fill:#ffffff" d="M 304.9375,131.9375 300,136.875 l -1.9375,-1.9375 -2.125,2.125 3,3 1.0625,1.0625 1.0625,-1.0625 6,-6 -2.125,-2.125 z"/>
  </g>
 </g>
 <path style="opacity:0.2;fill:#ffffff" d="M 6.8007812 10 C 5.2495812 10 4 11.2265 4 12.75 L 4 13.75 C 4 12.2265 5.2495812 11 6.8007812 11 L 17.859375 11 L 18 11 L 57.199219 11 C 58.750419 11 60 12.2265 60 13.75 L 60 12.75 C 60 11.2265 58.750419 10 57.199219 10 L 18 10 L 17.859375 10 L 6.8007812 10 z"/>
</svg>
